packages/astro-components-stencil/src/icons/person-pin.svg

<svg xmlns="http://www.w3.org/2000/svg" viewBox="0 0 24 24"><g xmlns="http://www.w3.org/2000/svg" id="person-pin" fill-rule="nonzero">
            <path d="M19 2H5a2 2 0 00-2 2v14c0 1.1.9 2 2 2h4l2.29 2.29c.39.39 1.02.39 1.41 0L15 20h4c1.1 0 2-.9 2-2V4c0-1.1-.9-2-2-2zm-7 3.3c1.49 0 2.7 1.21 2.7 2.7 0 1.49-1.21 2.7-2.7 2.7-1.49 0-2.7-1.21-2.7-2.7 0-1.49 1.21-2.7 2.7-2.7zM18 16H6v-.9c0-2 4-3.1 6-3.1s6 1.1 6 3.1v.9z"/>
        </g></svg>

<svg width="24" height="24" viewBox="0 0 24 24" fill="none" xmlns="http://www.w3.org/2000/svg">
<path fill-rule="evenodd" clip-rule="evenodd" d="M19 2H5C3.89 2 3 2.9 3 4V18C3 19.1 3.9 20 5 20H9L11.29 22.29C11.68 22.68 12.31 22.68 12.7 22.29L15 20H19C20.1 20 21 19.1 21 18V4C21 2.9 20.1 2 19 2ZM12 5.3C13.49 5.3 14.7 6.51 14.7 8C14.7 9.49 13.49 10.7 12 10.7C10.51 10.7 9.3 9.49 9.3 8C9.3 6.51 10.51 5.3 12 5.3ZM6 15.1V16H18V15.1C18 13.1 14 12 12 12C10 12 6 13.1 6 15.1Z" fill="black"/>
</svg>
